X:1
T:G Major Jeremiah Ingalls, 1805
T:Anonymous author, First published in Rippon's Selection , 1787, altered by Ingalls                              88. 88.  (L. M.)              
T:Redeeming Love
T:Transcribed from Ingalls' Christian Harmony, 1805.
%%score [ ( 1 2 ) 3 4 ]
L:1/8
Q:1/4=150
M:4/4
K:G
V:1 treble nm="Tr." snm="Tr."
V:2 treble 
V:3 treble-8 nm="T." snm="T."
V:4 bass nm="B." snm="B."
V:1
"^1. O  now  begin  the  heavenly theme, Come  sing aloud in  Je – sus' name; Come you who Jesus' kindness prove, Come triumph in re –\n2. Come mourning souls dry up your tears, And banish all your guilty fears,  And  see  the  guilt  secure  removed,    Tis  cancelled  by  re –" A4 | %1
 B2 e2 d2 d2 | d2 dB dB A2 | B2 e2 d2 dc | BA GA B3 A | B2 e2 d2 d2 | d2 dB dB A2 | B2 e2 d2 dc | %8
"^1. – deeming love; ____        Come,        you, a – las!  who  ere have been   The   willing  slaves  to  death  and  sin,       Come          now  from\n2. – deeming love; ____        Come,      wel–come  all,  by  sin  oppressed,   Come  welcome  to  his  sacred    rest;         There's        no – thing" BA GA B4- | %9
 B2 z2 dcBA | G2 AB c3 B | c2 A2 d2 c2 | B2 A2 B2 [cg]2 | BA GA B4 | dcBA G2 AB | %15
"^1. bliss   no   lon–ger   rove,     Stop, stop  and  taste  re–dee–ming    love.\n2. brought him from above,   No–thing   but   true  re–dee–ming    love." c3 B c2 A2 | %16
 d2 c2 B2 c2 | d2 g2 f2 d2 | d8 |] %19
V:2
 x4 | x8 | x8 | x8 | x8 | x8 | x8 | x8 | x8 | x8 | x8 | x8 | x8 | x8 | x8 | x8 | x8 | x2 c2 BA GA | %18
 B8 |] %19
V:3
"^3. Tis  he subdues th’ infernal powers,  And  his  tremendous  foes  are ours;   Our  foes  are from his empire drove,  He’s  migh–ty in  re –\n4. Come, you who live in Babylon, Come hear the voice of Christ the Son;  Arise  my  fair  one  and  my dove,   O  come  and   taste  re –" D4 | %1
 G2 c2 B2 A2 | B2 AG AF D2 | G2 c2 B2 A2 | dc BA G3 D | G2 c2 B2 A2 | B2 AG AF D2 | G2 c2 B2 A2 | %8
"^3. – deeming love; ____        Come          hither   and  your  music  bring,   Come  strike  aloud  your  joyful  string;     Come          mor– tals\n4. – deeming love; ____        The              an–gels  that  before  him stand,   They  go  and  come  at  his  command,     Though       they    are" dc BA G4- | %9
 G2 z2 ABcd | e2 A2 e3 d | e2 A2 A2 ef | g2 f2 g2 e2 | dc BA G4 | ABcd e2 A2 | %15
"^3. join   the  praise  above!   He’s   mighty     in     re  –  dee  –  ming    love.\n4. sea – ted   high    above,   Ne–ver  will      taste  re  –  dee  –  ming    love." e3 d e2 A2 | %16
 A2 ef g2 f2 | g2 e2 dc BA | G8 |] %19
V:4
"^5. O    surely  happy   now  they  be,   Our  God  and  Christ  they  daily  see;  They all in shining ranks there move,  But ne’er will sing  re –" D,4 | %1
 G,2 C,2 D,2 D,2 | D,2 D,2 D,2 D,2 | G,2 C,2 D,2 D,2 | D,2 D,2 G,,3 D, | G,2 C,2 D,2 D,2 | %6
 D,2 D,2 D,2 D,2 | G,2 C,2 D,2 D,2 | %8
"^5. – deeming love;  ____      O                  ye   bright  an–gels,   it   is   true.   That     I    shall   surely   out – do    you;    When             I      shall" D,2 D,2 G,,4- | %9
 G,,2 z2 D,4 | C,2 D,2 C,3 B,, | C,2 D,2 D,2 A,2 | G,2 D,2 G,2 C,2 | D,2 D,2 [G,,G,]4 | %14
 D,4 C,2 D,2 | %15
"^______________________________________________\nWords originally published in meter 77. 77.; Ingalls has altered\n   these to 88 88. by adding a syllable to each line.\nJackson (1953b), no. 168. Jackson assumes this tune derives\n   from a dance tune, but he was unable to find which one.""^5.  reign with him above,   Then   I   shall    sing   re  –  dee  – ming    love." C,3 B,, C,2 D,2 | %16
 D,2 [A,,A,]2 [G,,G,]2 [A,,A,]2 | [B,,B,]2 [C,C]2 [D,D]2 D,2 | [G,,G,]8 |] %19

